X: 28675
T: Mussels In The Corner
R: polka
M: 2/4
K: Gmajor
|:gf ed|Bd e2|dB GA|BA A2|
gf ed|Bd e2|dB AB|1 G2 G2:|2 G2 GB/c/||
|:dB GA|Bd e2|dB GA|BA AB/c/|
dB GA|Bd e2|dB AB|1 G2 GB/c/:|2 G2 G2||

